packages/landing-ui/public/product-box.svg

<svg width="86" height="86" viewBox="0 0 86 86" fill="none" xmlns="http://www.w3.org/2000/svg">
<path d="M71.6667 47.3474V19.7083C71.6667 19.37 71.548 19.0717 71.3852 18.8018L71.4112 18.7863L60.6612 0.869574C60.3376 0.33073 59.7549 0 59.125 0H12.5417C11.9118 0 11.3292 0.33073 11.0055 0.869574L0.25548 18.7863L0.281516 18.8018C0.118754 19.0717 0 19.37 0 19.7083V69.875C0 70.8653 0.801379 71.6667 1.79172 71.6667H47.3474C49.6949 79.9262 57.2896 86 66.2917 86C77.159 86 86 77.159 86 66.2917C86 57.2896 79.9262 49.6949 71.6667 47.3474ZM58.1101 3.58328L66.7105 17.9166H46.2603L43.3937 3.58328H58.1101ZM31.927 3.58328H39.7426L42.638 17.9166H29.0603L31.927 3.58328ZM43 21.5V28.6667H28.6613L28.6367 21.5H43ZM13.5564 3.58328H28.277L25.4382 17.9166H4.95625L13.5564 3.58328ZM46.6741 68.0833H3.58328V21.5H25.0833V30.4583C25.0833 31.4486 25.8847 32.25 26.875 32.25H44.7917C45.7821 32.25 46.5834 31.4486 46.5834 30.4583L46.5551 21.5H68.0833V46.6741C67.4924 46.6206 66.8964 46.5834 66.2915 46.5834C55.4243 46.5834 46.5833 55.4245 46.5833 66.2917C46.5833 66.8964 46.6206 67.4924 46.6741 68.0833ZM66.2917 82.4167C57.3998 82.4167 50.1667 75.1835 50.1667 66.2917C50.1667 57.4 57.4 50.1667 66.2917 50.1667C75.1835 50.1667 82.4167 57.4 82.4167 66.2917C82.4167 75.1835 75.1835 82.4167 66.2917 82.4167Z" fill="#687C94"/>
<path d="M73.4583 64.5H68.0833V59.125C68.0833 58.1347 67.2819 57.3333 66.2915 57.3333C65.3012 57.3333 64.5 58.1347 64.5 59.125V64.5H59.125C58.1346 64.5 57.3333 65.3014 57.3333 66.2918C57.3333 67.2821 58.1346 68.0835 59.125 68.0835H64.5V73.4585C64.5 74.4488 65.3014 75.2502 66.2917 75.2502C67.282 75.2502 68.0834 74.4488 68.0834 73.4585V68.0835H73.4584C74.4488 68.0835 75.2501 67.2821 75.2501 66.2918C75.2501 65.3014 74.4486 64.5 73.4583 64.5Z" fill="#F6376D"/>
</svg>

<svg width="86" height="86" fill="none" xmlns="http://www.w3.org/2000/svg"><path d="M71.667 47.347V19.708c0-.338-.119-.636-.282-.906l.026-.016L60.661.87A1.792 1.792 0 0059.125 0H12.542c-.63 0-1.213.33-1.537.87L.255 18.786l.027.016c-.163.27-.282.568-.282.906v50.167c0 .99.801 1.792 1.792 1.792h45.555C49.695 79.927 57.29 86 66.292 86 77.159 86 86 77.159 86 66.292c0-9.002-6.074-16.597-14.333-18.945zM58.11 3.583l8.6 14.334H46.26L43.394 3.583H58.11zm-26.183 0h7.816l2.895 14.334H29.06l2.867-14.334zM43 21.5v7.167H28.661l-.024-7.167H43zM13.556 3.583h14.721l-2.839 14.334H4.956l8.6-14.334zm33.118 64.5H3.584V21.5h21.5v8.958c0 .99.8 1.792 1.791 1.792h17.917a1.79 1.79 0 001.791-1.792l-.028-8.958h21.528v25.174c-.59-.053-1.187-.09-1.791-.09-10.868 0-19.709 8.84-19.709 19.708 0 .604.038 1.2.091 1.791zm19.618 14.334c-8.892 0-16.125-7.234-16.125-16.125 0-8.892 7.233-16.125 16.125-16.125 8.891 0 16.125 7.233 16.125 16.125 0 8.891-7.234 16.125-16.125 16.125z" fill="#687C94"/><path d="M73.458 64.5h-5.375v-5.375a1.79 1.79 0 10-3.583 0V64.5h-5.375a1.79 1.79 0 100 3.584H64.5v5.374a1.79 1.79 0 103.583 0v-5.374h5.375a1.79 1.79 0 100-3.584z" fill="#F6376D"/></svg>
